archdroid-icon-theme/Archdroid-Blue/actions/scalable/folder-move.svg

<svg xmlns="http://www.w3.org/2000/svg" fill="#2196F3" viewBox="0 0 48 48"><path d="m4 4c-2.21 0-4 1.79-4 4v28h4v-28h24v-4h-24m8 8c-2.21 0-3.98 1.79-3.98 4l-.02 24c0 2.21 1.79 4 4 4h32c2.21 0 4-1.79 4-4v-20c0-2.21-1.79-4-4-4h-16l-4-4h-12"/></svg>

<?xml version="1.0" encoding="UTF-8" standalone="no"?>
<svg
   xmlns:dc="http://purl.org/dc/elements/1.1/"
   xmlns:cc="http://creativecommons.org/ns#"
   xmlns:rdf="http://www.w3.org/1999/02/22-rdf-syntax-ns#"
   xmlns:svg="http://www.w3.org/2000/svg"
   xmlns="http://www.w3.org/2000/svg"
   xmlns:sodipodi="http://sodipodi.sourceforge.net/DTD/sodipodi-0.dtd"
   xmlns:inkscape="http://www.inkscape.org/namespaces/inkscape"
   fill="#2196F3"
   width="48"
   height="48"
   viewBox="0 0 48 48"
   id="svg2"
   version="1.1"
   inkscape:version="0.91 r13725"
   sodipodi:docname="folder-move.svg">
  <metadata
     id="metadata10">
    <rdf:RDF>
      <cc:Work
         rdf:about="">
        <dc:format>image/svg+xml</dc:format>
        <dc:type
           rdf:resource="http://purl.org/dc/dcmitype/StillImage" />
        <dc:title></dc:title>
      </cc:Work>
    </rdf:RDF>
  </metadata>
  <defs
     id="defs8" />
  <sodipodi:namedview
     pagecolor="#ffffff"
     bordercolor="#666666"
     borderopacity="1"
     objecttolerance="10"
     gridtolerance="10"
     guidetolerance="10"
     inkscape:pageopacity="0"
     inkscape:pageshadow="2"
     inkscape:window-width="1366"
     inkscape:window-height="713"
     id="namedview6"
     showgrid="false"
     inkscape:snap-bbox="true"
     inkscape:bbox-paths="true"
     inkscape:bbox-nodes="true"
     inkscape:zoom="6.9532167"
     inkscape:cx="-15.054662"
     inkscape:cy="21.42009"
     inkscape:window-x="0"
     inkscape:window-y="30"
     inkscape:window-maximized="1"
     inkscape:current-layer="svg2"
     inkscape:snap-text-baseline="true"
     inkscape:snap-page="true" />
  <path
     style="fill:#2196F3"
     d="M 4 4 C 1.79 4 0 5.79 0 8 L 0 36 L 4 36 L 4 8 L 28 8 L 28 4 L 4 4 z M 12 12 C 9.79 12 8.0195312 13.79 8.0195312 16 L 8 40 C 8 42.21 9.79 44 12 44 L 44 44 C 46.21 44 48 42.21 48 40 L 48 20 C 48 17.79 46.21 16 44 16 L 28 16 L 24 12 L 12 12 z "
     id="path4213" />
</svg>
